src/assets/kids_space/dino_runner/background.svg

<?xml version="1.0" encoding="UTF-8"?>
<svg xmlns="http://www.w3.org/2000/svg" xmlns:xlink="http://www.w3.org/1999/xlink" width="1440pt" height="809.999993pt" viewBox="0 0 1440 809.999993" version="1.2">
<defs>
<clipPath id="clip1">
  <path d="M 1094 66.515625 L 1239 66.515625 L 1239 214.265625 L 1094 214.265625 Z M 1094 66.515625 "/>
</clipPath>
</defs>
<g id="surface1">
<path style=" stroke:none;fill-rule:nonzero;fill:rgb(25.099182%,48.239136%,14.898682%);fill-opacity:1;" d="M 0.0585938 729 L 1439.882812 729 L 1439.882812 810.160156 L 0.0585938 810.160156 Z M 0.0585938 729 "/>
<path id="dino_runner__star_one" class="star" style=" stroke:none;fill-rule:nonzero;fill:rgb(100%,98.039246%,81.17981%);fill-opacity:1;" d="M 118.671875 81.285156 L 122.976562 89.996094 C 123.042969 90.148438 123.195312 90.257812 123.371094 90.277344 L 133.003906 91.671875 C 133.417969 91.738281 133.59375 92.261719 133.285156 92.542969 L 126.316406 99.316406 C 126.1875 99.425781 126.144531 99.601562 126.164062 99.773438 L 127.804688 109.359375 C 127.867188 109.773438 127.433594 110.097656 127.0625 109.902344 L 118.433594 105.371094 C 118.28125 105.285156 118.105469 105.285156 117.953125 105.371094 L 109.324219 109.902344 C 108.953125 110.097656 108.515625 109.773438 108.582031 109.359375 L 110.21875 99.773438 C 110.242188 99.601562 110.199219 99.449219 110.066406 99.316406 L 103.121094 92.542969 C 102.816406 92.238281 102.988281 91.738281 103.402344 91.671875 L 113.039062 90.277344 C 113.210938 90.257812 113.34375 90.148438 113.429688 89.996094 L 117.734375 81.285156 C 117.929688 80.914062 118.476562 80.914062 118.671875 81.285156 Z M 118.671875 81.285156 "/>
<path id="dino_runner__star_two" class="star" style=" stroke:none;fill-rule:nonzero;fill:rgb(100%,98.039246%,81.17981%);fill-opacity:1;" d="M 544.121094 52.316406 L 548.421875 61.027344 C 548.488281 61.179688 548.640625 61.289062 548.816406 61.308594 L 558.449219 62.703125 C 558.863281 62.769531 559.039062 63.292969 558.734375 63.574219 L 551.765625 70.347656 C 551.632812 70.457031 551.589844 70.632812 551.613281 70.804688 L 553.25 80.390625 C 553.316406 80.804688 552.878906 81.128906 552.507812 80.933594 L 543.878906 76.402344 C 543.726562 76.316406 543.550781 76.316406 543.398438 76.402344 L 534.769531 80.933594 C 534.398438 81.128906 533.960938 80.804688 534.027344 80.390625 L 535.667969 70.804688 C 535.6875 70.632812 535.644531 70.480469 535.511719 70.347656 L 528.566406 63.574219 C 528.261719 63.269531 528.4375 62.769531 528.851562 62.703125 L 538.484375 61.308594 C 538.660156 61.289062 538.789062 61.179688 538.878906 61.027344 L 543.179688 52.316406 C 543.378906 51.945312 543.921875 51.945312 544.121094 52.316406 Z M 544.121094 52.316406 "/>
<path id="dino_runner__star_three" class="star" style=" stroke:none;fill-rule:nonzero;fill:rgb(100%,98.039246%,81.17981%);fill-opacity:1;" d="M 320.933594 248.703125 L 325.234375 257.417969 C 325.300781 257.570312 325.453125 257.679688 325.628906 257.699219 L 335.261719 259.09375 C 335.675781 259.160156 335.851562 259.679688 335.546875 259.964844 L 328.578125 266.738281 C 328.445312 266.847656 328.402344 267.023438 328.425781 267.195312 L 330.0625 276.777344 C 330.128906 277.191406 329.691406 277.519531 329.320312 277.324219 L 320.691406 272.792969 C 320.539062 272.707031 320.363281 272.707031 320.210938 272.792969 L 311.582031 277.324219 C 311.210938 277.519531 310.773438 277.191406 310.839844 276.777344 L 312.480469 267.195312 C 312.5 267.023438 312.457031 266.867188 312.324219 266.738281 L 305.378906 259.964844 C 305.074219 259.660156 305.25 259.160156 305.664062 259.09375 L 315.296875 257.699219 C 315.472656 257.679688 315.601562 257.570312 315.691406 257.417969 L 319.992188 248.703125 C 320.191406 248.335938 320.734375 248.335938 320.933594 248.703125 Z M 320.933594 248.703125 "/>
<path id="dino_runner__star_four" class="star" style=" stroke:none;fill-rule:nonzero;fill:rgb(100%,98.039246%,81.17981%);fill-opacity:1;" d="M 66.300781 498.019531 L 70.601562 506.734375 C 70.667969 506.886719 70.820312 506.996094 70.996094 507.015625 L 80.628906 508.410156 C 81.042969 508.476562 81.21875 508.996094 80.914062 509.28125 L 73.945312 516.054688 C 73.8125 516.164062 73.769531 516.339844 73.792969 516.511719 L 75.429688 526.09375 C 75.496094 526.507812 75.058594 526.835938 74.6875 526.640625 L 66.058594 522.109375 C 65.90625 522.023438 65.730469 522.023438 65.578125 522.109375 L 56.949219 526.640625 C 56.578125 526.835938 56.140625 526.507812 56.207031 526.09375 L 57.84375 516.511719 C 57.867188 516.339844 57.824219 516.183594 57.691406 516.054688 L 50.746094 509.28125 C 50.441406 508.976562 50.617188 508.476562 51.03125 508.410156 L 60.664062 507.015625 C 60.839844 506.996094 60.96875 506.886719 61.054688 506.734375 L 65.359375 498.019531 C 65.554688 497.652344 66.101562 497.652344 66.300781 498.019531 Z M 66.300781 498.019531 "/>
<path id="dino_runner__star_five" class="star" style=" stroke:none;fill-rule:nonzero;fill:rgb(100%,98.039246%,81.17981%);fill-opacity:1;" d="M 427.625 601.449219 L 431.929688 610.160156 C 431.996094 610.3125 432.148438 610.421875 432.324219 610.445312 L 441.957031 611.839844 C 442.371094 611.902344 442.546875 612.425781 442.238281 612.710938 L 435.273438 619.484375 C 435.140625 619.59375 435.097656 619.765625 435.121094 619.941406 L 436.757812 629.523438 C 436.824219 629.9375 436.386719 630.265625 436.015625 630.066406 L 427.386719 625.539062 C 427.234375 625.449219 427.058594 625.449219 426.90625 625.539062 L 418.277344 630.066406 C 417.90625 630.265625 417.46875 629.9375 417.535156 629.523438 L 419.171875 619.941406 C 419.195312 619.765625 419.152344 619.613281 419.019531 619.484375 L 412.074219 612.710938 C 411.769531 612.40625 411.941406 611.902344 412.359375 611.839844 L 421.992188 610.445312 C 422.164062 610.421875 422.296875 610.3125 422.382812 610.160156 L 426.6875 601.449219 C 426.882812 601.078125 427.429688 601.078125 427.625 601.449219 Z M 427.625 601.449219 "/>
<path id="dino_runner__star_six" class="star" style=" stroke:none;fill-rule:nonzero;fill:rgb(100%,98.039246%,81.17981%);fill-opacity:1;" d="M 574.527344 419.632812 L 578.828125 428.34375 C 578.894531 428.496094 579.046875 428.605469 579.222656 428.628906 L 588.855469 430.023438 C 589.269531 430.085938 589.445312 430.609375 589.140625 430.894531 L 582.171875 437.667969 C 582.039062 437.777344 581.996094 437.949219 582.019531 438.125 L 583.65625 447.707031 C 583.722656 448.121094 583.285156 448.449219 582.914062 448.253906 L 574.285156 443.722656 C 574.132812 443.636719 573.957031 443.636719 573.804688 443.722656 L 565.175781 448.253906 C 564.804688 448.449219 564.367188 448.121094 564.433594 447.707031 L 566.074219 438.125 C 566.09375 437.949219 566.050781 437.796875 565.917969 437.667969 L 558.972656 430.894531 C 558.667969 430.589844 558.84375 430.085938 559.257812 430.023438 L 568.890625 428.628906 C 569.066406 428.605469 569.195312 428.496094 569.285156 428.34375 L 573.585938 419.632812 C 573.785156 419.261719 574.328125 419.261719 574.527344 419.632812 Z M 574.527344 419.632812 "/>
<path id="dino_runner__star_seven" class="star" style=" stroke:none;fill-rule:nonzero;fill:rgb(100%,98.039246%,81.17981%);fill-opacity:1;" d="M 885.976562 127.855469 L 890.28125 136.570312 C 890.347656 136.722656 890.5 136.828125 890.671875 136.851562 L 900.308594 138.246094 C 900.722656 138.3125 900.894531 138.832031 900.589844 139.117188 L 893.621094 145.890625 C 893.492188 146 893.449219 146.171875 893.46875 146.347656 L 895.109375 155.929688 C 895.171875 156.34375 894.738281 156.671875 894.363281 156.476562 L 885.738281 151.945312 C 885.585938 151.859375 885.410156 151.859375 885.257812 151.945312 L 876.628906 156.476562 C 876.257812 156.671875 875.820312 156.34375 875.886719 155.929688 L 877.523438 146.347656 C 877.546875 146.171875 877.5 146.019531 877.371094 145.890625 L 870.425781 139.117188 C 870.117188 138.8125 870.292969 138.3125 870.707031 138.246094 L 880.339844 136.851562 C 880.515625 136.828125 880.648438 136.722656 880.734375 136.570312 L 885.039062 127.855469 C 885.234375 127.488281 885.78125 127.488281 885.976562 127.855469 Z M 885.976562 127.855469 "/>
<path id="dino_runner__star_eight" class="star" style=" stroke:none;fill-rule:nonzero;fill:rgb(100%,98.039246%,81.17981%);fill-opacity:1;" d="M 855.570312 650.441406 L 859.875 659.152344 C 859.941406 659.304688 860.09375 659.414062 860.265625 659.4375 L 869.898438 660.832031 C 870.316406 660.894531 870.488281 661.417969 870.183594 661.703125 L 863.214844 668.476562 C 863.085938 668.585938 863.042969 668.757812 863.0625 668.933594 L 864.703125 678.515625 C 864.765625 678.929688 864.328125 679.257812 863.957031 679.0625 L 855.332031 674.53125 C 855.175781 674.441406 855.003906 674.441406 854.851562 674.53125 L 846.222656 679.0625 C 845.851562 679.257812 845.414062 678.929688 845.480469 678.515625 L 847.117188 668.933594 C 847.140625 668.757812 847.09375 668.605469 846.964844 668.476562 L 840.019531 661.703125 C 839.710938 661.398438 839.886719 660.894531 840.300781 660.832031 L 849.933594 659.4375 C 850.109375 659.414062 850.242188 659.304688 850.328125 659.152344 L 854.632812 650.441406 C 854.828125 650.070312 855.375 650.070312 855.570312 650.441406 Z M 855.570312 650.441406 "/>
<path id="dino_runner__star_nine" class="star" style=" stroke:none;fill-rule:nonzero;fill:rgb(100%,98.039246%,81.17981%);fill-opacity:1;" d="M 1016.625 390.664062 L 1020.925781 399.375 C 1020.992188 399.527344 1021.144531 399.636719 1021.320312 399.660156 L 1030.953125 401.054688 C 1031.367188 401.117188 1031.542969 401.640625 1031.238281 401.925781 L 1024.269531 408.699219 C 1024.136719 408.808594 1024.09375 408.980469 1024.117188 409.15625 L 1025.753906 418.738281 C 1025.820312 419.152344 1025.382812 419.480469 1025.011719 419.285156 L 1016.382812 414.753906 C 1016.230469 414.664062 1016.054688 414.664062 1015.902344 414.753906 L 1007.273438 419.285156 C 1006.902344 419.480469 1006.464844 419.152344 1006.53125 418.738281 L 1008.167969 409.15625 C 1008.191406 408.980469 1008.148438 408.828125 1008.015625 408.699219 L 1001.070312 401.925781 C 1000.765625 401.621094 1000.941406 401.117188 1001.355469 401.054688 L 1010.988281 399.660156 C 1011.164062 399.636719 1011.292969 399.527344 1011.382812 399.375 L 1015.683594 390.664062 C 1015.878906 390.292969 1016.425781 390.292969 1016.625 390.664062 Z M 1016.625 390.664062 "/>
<path id="dino_runner__star_ten" class="star" style=" stroke:none;fill-rule:nonzero;fill:rgb(100%,98.039246%,81.17981%);fill-opacity:1;" d="M 1321.542969 277.671875 L 1325.84375 286.386719 C 1325.910156 286.539062 1326.0625 286.648438 1326.238281 286.667969 L 1335.871094 288.0625 C 1336.285156 288.128906 1336.460938 288.652344 1336.15625 288.933594 L 1329.1875 295.707031 C 1329.054688 295.816406 1329.011719 295.992188 1329.035156 296.164062 L 1330.671875 305.746094 C 1330.738281 306.160156 1330.300781 306.488281 1329.929688 306.292969 L 1321.300781 301.761719 C 1321.148438 301.675781 1320.972656 301.675781 1320.820312 301.761719 L 1312.191406 306.292969 C 1311.820312 306.488281 1311.386719 306.160156 1311.449219 305.746094 L 1313.089844 296.164062 C 1313.109375 295.992188 1313.066406 295.839844 1312.9375 295.707031 L 1305.988281 288.933594 C 1305.683594 288.628906 1305.859375 288.128906 1306.273438 288.0625 L 1315.90625 286.667969 C 1316.082031 286.648438 1316.210938 286.539062 1316.300781 286.386719 L 1320.601562 277.671875 C 1320.800781 277.304688 1321.34375 277.304688 1321.542969 277.671875 Z M 1321.542969 277.671875 "/>
<path id="dino_runner__star_eleven" class="star" style=" stroke:none;fill-rule:nonzero;fill:rgb(100%,98.039246%,81.17981%);fill-opacity:1;" d="M 1351.949219 621.472656 L 1356.25 630.183594 C 1356.316406 630.335938 1356.46875 630.445312 1356.644531 630.46875 L 1366.277344 631.863281 C 1366.691406 631.925781 1366.867188 632.449219 1366.5625 632.734375 L 1359.59375 639.507812 C 1359.460938 639.617188 1359.417969 639.789062 1359.441406 639.964844 L 1361.078125 649.546875 C 1361.144531 649.960938 1360.707031 650.289062 1360.335938 650.089844 L 1351.707031 645.5625 C 1351.554688 645.472656 1351.378906 645.472656 1351.226562 645.5625 L 1342.597656 650.089844 C 1342.226562 650.289062 1341.792969 649.960938 1341.855469 649.546875 L 1343.496094 639.964844 C 1343.515625 639.789062 1343.472656 639.636719 1343.34375 639.507812 L 1336.394531 632.734375 C 1336.089844 632.429688 1336.265625 631.925781 1336.679688 631.863281 L 1346.3125 630.46875 C 1346.488281 630.445312 1346.617188 630.335938 1346.707031 630.183594 L 1351.007812 621.472656 C 1351.207031 621.101562 1351.753906 621.101562 1351.949219 621.472656 Z M 1351.949219 621.472656 "/>
<path style=" stroke:none;fill-rule:nonzero;fill:rgb(96.078491%,96.078491%,96.078491%);fill-opacity:1;" d="M 683.042969 104.199219 C 683.042969 90.484375 686.613281 77.605469 692.875 66.441406 C 666.167969 78.609375 647.59375 105.546875 647.59375 136.820312 C 647.59375 179.507812 682.191406 214.117188 724.875 214.117188 C 753.84375 214.117188 779.085938 198.171875 792.320312 174.582031 C 782.570312 179.023438 771.734375 181.5 760.320312 181.5 C 717.640625 181.496094 683.042969 146.886719 683.042969 104.199219 Z M 683.042969 104.199219 "/>
</g>
</svg>

<svg xmlns="http://www.w3.org/2000/svg" width="1920" height="1080" viewBox="0 0 1440 810" version="1.2"><path d="M.059 729h1439.824v81.16H.059zm0 0" fill="#407b26"/><path class="star" d="M118.672 81.285l4.305 8.711a.488.488 0 00.394.281l9.633 1.395c.414.066.59.59.281.871l-6.969 6.773c-.129.11-.171.286-.152.457l1.64 9.586c.063.414-.37.739-.742.543l-8.628-4.53a.48.48 0 00-.48 0l-8.63 4.53c-.37.196-.808-.129-.742-.543l1.637-9.586a.512.512 0 00-.153-.457l-6.945-6.773a.51.51 0 01.281-.871l9.637-1.395a.518.518 0 00.39-.28l4.305-8.712a.534.534 0 01.938 0zm425.449-28.969l4.3 8.711a.488.488 0 00.395.282l9.633 1.394c.414.067.59.59.285.871l-6.968 6.774c-.133.109-.176.285-.153.457l1.637 9.586c.066.414-.371.738-.742.543l-8.63-4.532a.48.48 0 00-.48 0l-8.628 4.532c-.372.195-.81-.13-.743-.543l1.641-9.586a.525.525 0 00-.156-.457l-6.946-6.774a.512.512 0 01.286-.87l9.632-1.395c.176-.02.305-.13.395-.282l4.3-8.71a.537.537 0 01.942 0zM320.934 248.703l4.3 8.715a.488.488 0 00.395.281l9.633 1.395c.414.066.59.586.285.87l-6.969 6.774c-.133.11-.176.285-.152.457l1.637 9.582c.066.414-.372.743-.743.547l-8.629-4.531a.48.48 0 00-.48 0l-8.629 4.531c-.371.196-.809-.133-.742-.547l1.64-9.582a.522.522 0 00-.156-.457l-6.945-6.773a.512.512 0 01.285-.871l9.633-1.395c.176-.02.305-.129.394-.281l4.301-8.715a.54.54 0 01.942 0zM66.3 498.02l4.302 8.714a.488.488 0 00.394.282l9.633 1.394c.414.067.59.586.285.871l-6.969 6.774c-.132.11-.175.285-.152.457l1.637 9.582c.066.414-.371.742-.743.547l-8.628-4.532a.48.48 0 00-.48 0l-8.63 4.532c-.37.195-.808-.133-.742-.547l1.637-9.582a.508.508 0 00-.153-.457l-6.945-6.774a.512.512 0 01.285-.87l9.633-1.395a.512.512 0 00.39-.282l4.305-8.714a.54.54 0 01.942 0zm361.325 103.43l4.305 8.71a.5.5 0 00.394.285l9.633 1.395c.414.062.59.586.281.87l-6.965 6.774c-.132.11-.175.282-.152.457l1.637 9.582c.066.414-.371.743-.742.543l-8.63-4.527a.462.462 0 00-.48 0l-8.629 4.527c-.37.2-.808-.129-.742-.543l1.637-9.582a.505.505 0 00-.152-.457l-6.946-6.773a.51.51 0 01.285-.871l9.633-1.395a.533.533 0 00.39-.285l4.305-8.71a.534.534 0 01.938 0zm146.902-181.817l4.301 8.71a.5.5 0 00.395.286l9.632 1.394c.415.063.59.586.286.872l-6.97 6.773c-.132.11-.175.281-.151.457l1.636 9.582c.067.414-.37.742-.742.547l-8.629-4.531a.48.48 0 00-.48 0l-8.63 4.53c-.37.196-.808-.132-.741-.546l1.64-9.582a.518.518 0 00-.156-.457l-6.945-6.773a.511.511 0 01.285-.872l9.633-1.394c.175-.024.304-.133.394-.285l4.3-8.711a.537.537 0 01.942 0zm311.45-291.778l4.304 8.715a.496.496 0 00.39.282l9.638 1.394c.414.066.586.586.28.871l-6.968 6.774c-.129.109-.172.28-.152.457l1.64 9.582c.063.414-.37.742-.746.547l-8.625-4.532a.48.48 0 00-.48 0l-8.63 4.532c-.37.195-.808-.133-.741-.547l1.636-9.582a.515.515 0 00-.152-.457l-6.945-6.774a.51.51 0 01.281-.87l9.633-1.395a.528.528 0 00.394-.282l4.305-8.715a.537.537 0 01.938 0zM855.57 650.441l4.305 8.711a.5.5 0 00.39.285l9.633 1.395c.418.063.59.586.286.871l-6.97 6.774c-.128.109-.171.28-.152.457l1.641 9.582c.063.414-.375.742-.746.547l-8.625-4.532a.462.462 0 00-.48 0l-8.63 4.532c-.37.195-.808-.133-.742-.547l1.637-9.582a.515.515 0 00-.152-.457l-6.945-6.774a.51.51 0 01.28-.871l9.634-1.394a.532.532 0 00.394-.286l4.305-8.71a.534.534 0 01.937 0zm161.055-259.777l4.3 8.711a.5.5 0 00.395.285l9.633 1.395c.414.062.59.586.285.87l-6.968 6.774c-.133.11-.176.281-.153.457l1.637 9.582c.066.414-.371.742-.742.547l-8.63-4.531a.462.462 0 00-.48 0l-8.629 4.531c-.37.195-.808-.133-.742-.547l1.637-9.582a.505.505 0 00-.152-.457l-6.946-6.773a.511.511 0 01.285-.871l9.633-1.395c.176-.023.305-.133.395-.285l4.3-8.71a.537.537 0 01.942 0zm304.918-112.992l4.3 8.715a.488.488 0 00.395.281l9.633 1.394c.414.067.59.59.285.872l-6.968 6.773c-.133.11-.176.285-.153.457l1.637 9.582c.066.414-.371.742-.742.547l-8.63-4.531a.48.48 0 00-.48 0l-8.629 4.531c-.37.195-.804-.133-.742-.547l1.64-9.582a.534.534 0 00-.151-.457l-6.95-6.773a.512.512 0 01.285-.872l9.633-1.394c.176-.02.305-.129.395-.281l4.3-8.715a.54.54 0 01.942 0zm30.407 343.801l4.3 8.71a.5.5 0 00.395.286l9.632 1.394c.414.063.59.586.285.871l-6.968 6.774c-.133.11-.176.281-.153.457l1.637 9.582c.067.414-.371.742-.742.543l-8.629-4.528a.462.462 0 00-.48 0l-8.63 4.528c-.37.2-.804-.13-.742-.543l1.641-9.582a.526.526 0 00-.152-.457l-6.95-6.774a.511.511 0 01.286-.87l9.632-1.395a.542.542 0 00.395-.285l4.3-8.711a.537.537 0 01.942 0zm0 0" fill="#fffacf"/><path d="M683.043 104.2c0-13.716 3.57-26.595 9.832-37.759-26.707 12.168-45.281 39.106-45.281 70.38 0 42.687 34.597 77.296 77.281 77.296 28.969 0 54.21-15.945 67.445-39.535-9.75 4.441-20.586 6.918-32 6.918-42.68-.004-77.277-34.613-77.277-77.3zm0 0" fill="#f5f5f5"/></svg>
